brandFactory_export/2.Regular/Escudo _2Regular.svg

<?xml version="1.0" encoding="UTF-8"?>
<svg width="24px" height="24px" viewBox="0 0 24 24" version="1.1" xmlns="http://www.w3.org/2000/svg" xmlns:xlink="http://www.w3.org/1999/xlink">
    <title>2.Regular/Escudo _2Regular</title>
    <g id="Symbols" stroke="none" stroke-width="1" fill="none" fill-rule="evenodd">
        <g id="2.Regular/Escudo-_2Regular" fill="#5CB615" fill-rule="nonzero">
            <path d="M1.47226891,4.60168067 C1.48235294,6.68571429 1.55630252,12.194958 1.99663866,14.7428571 C2.48739496,17.5932773 7.91932773,20.8537815 10.3495798,22.0638655 C12.7798319,20.8504202 18.2218487,17.589916 18.712605,14.7428571 C19.1462185,12.1915966 19.2168067,6.68235294 19.2268908,4.59831933 C17.2201681,4.69915966 15.9563025,3.85882353 14.7428571,3.04537815 C13.5361345,2.23529412 12.3966387,1.47226891 10.3563025,1.46890756 L10.3495798,1.46890756 C8.31260504,1.46890756 7.1697479,2.23529412 5.96302521,3.04537815 C4.74621849,3.86218487 3.48235294,4.72268908 1.47226891,4.60168067 Z M10.3495798,23.6235294 C10.2453782,23.6235294 10.1378151,23.6 10.0403361,23.5529412 C9.14621849,23.1260504 1.29747899,19.2605042 0.564705882,14.9983193 C-0.00336134454,11.707563 0.0167180746,4.10084034 0.0167180746,3.77815126 C0.0167180746,3.54957983 0.121008403,3.33781513 0.299159664,3.19663866 C0.477310924,3.05882353 0.709243697,3.01176471 0.924369748,3.06554622 C2.84705882,3.37478992 3.86218487,2.68571429 5.15294118,1.81848739 C6.42689076,0.964705882 7.86890756,0 10.3462185,0 L10.3563025,0 C12.8336134,0.00336134454 14.2756303,0.968067227 15.5462185,1.82184874 C16.8369748,2.68907563 17.8588235,3.36806723 19.8084034,3.06218487 C20.0168067,3.02857143 20.2487395,3.08571429 20.410084,3.22689076 C20.5714286,3.36806723 20.6824446,3.56638655 20.6824446,3.78151261 C20.6824446,4.10420168 20.702521,11.7109244 20.1445378,15.0016807 C19.4117647,19.2638655 11.5529412,23.1294118 10.6588235,23.5563025 C10.5613445,23.6 10.4537815,23.6235294 10.3495798,23.6235294 Z" id="Escudo-_2Regular"></path>
        </g>
    </g>
</svg>

<svg width="24" height="24" viewBox="0 0 24 24" xmlns="http://www.w3.org/2000/svg"><path d="M1.472 4.602c.01 2.084.084 7.593.525 10.14.49 2.851 5.922 6.112 8.353 7.322 2.43-1.214 7.872-4.474 8.363-7.321.433-2.551.504-8.06.514-10.145-2.007.101-3.27-.74-4.484-1.553-1.207-.81-2.346-1.573-4.387-1.576h-.006c-2.037 0-3.18.766-4.387 1.576-1.217.817-2.48 1.678-4.49 1.557zm8.878 19.022a.717.717 0 01-.31-.071c-.894-.427-8.743-4.292-9.475-8.555-.568-3.29-.548-10.897-.548-11.22a.74.74 0 01.282-.581.734.734 0 01.625-.131c1.923.309 2.938-.38 4.229-1.248C6.427.965 7.869 0 10.346 0h.01c2.478.003 3.92.968 5.19 1.822 1.291.867 2.313 1.546 4.262 1.24a.75.75 0 01.602.165.75.75 0 01.272.555c0 .322.02 7.929-.537 11.22-.733 4.262-8.592 8.127-9.486 8.554a.765.765 0 01-.31.068z" fill="#5CB615" fill-rule="nonzero"/></svg>
